X: 04087
T: SWEET SEPTEMBER
C: Bob McQuillen 8 Sept 79
B: Bob's Note Book 04 #87
%R: waltz, hambo
Z: 2020 John Chambers <jc:trillian.mit.edu>
M: 3/4
L: 1/8
K: D
A>G \
| F2 A2 A>A | B2 A2 d>f | a2 a3 b | a4 A>G | F2 A2 d>f | a2 g2 f2 | f2 e>d e>f | e>d c>B A>G |
| F2 A2 A>A | B2 A>F D>F | A2 d2 c>d | e>d c>B A>G | F2 A2 f>g | f4 e2 | d6- | d4 ||
|| F>G \
| A2 d2 d>e | f>e d>e d>e | f2 d3 B | A4 F>G | A>B A>B d>e | f2 d>f d>f | a2 g2 f>g | f2 e3 B |
| A2 d2 d>e | f>e d>e d>e | f2 f3 g | f2 a2 b2 | a>f d>e f>g | f>e A2 e2 | d6- | d4 |]
%%begintext align
%% Georgia and Andy became
%% Mr. & Mrs. Andrew Fletcher
%% today, and I hope they like this tune!
%%endtext

%%sep 1 1 500

%%sep 1 1 500

